Adwaita++/actions/22/view-multiple-objects.svg

<svg height="22" viewBox="0 0 22 22" width="22" xmlns="http://www.w3.org/2000/svg">
  <path d="m1 1v6h8v-6zm10 0v6h4v-6zm-10 8v6h14v-6z" fill="#444" transform="translate(3 3)"/>
</svg>

<svg xmlns="http://www.w3.org/2000/svg" width="22" height="22" viewBox="0 0 22 22">
 <defs>
  <style id="current-color-scheme" type="text/css">
   .ColorScheme-Text { color:#444444; } .ColorScheme-Highlight { color:#4285f4; }
  </style>
 </defs>
 <path style="fill:currentColor" class="ColorScheme-Text" d="M 1 1 L 1 7 L 9 7 L 9 1 L 1 1 z M 11 1 L 11 7 L 15 7 L 15 1 L 11 1 z M 1 9 L 1 15 L 15 15 L 15 9 L 1 9 z" transform="translate(3 3)"/>
</svg>
